X: 1
T: Bessie Murphy
M: 6/8
L: 1/8
R: jig
K: Ddor
A/G/|FGA ABc|ded cAG|FGA cAG|FGA A2G|
FGA ABc|ded cAG|FDF GAG|[1 FDF G2:|[2 FDF G2g||
fed cde|fed cAG|FGA cAG|FGA A2g|
fed cde|fed cAG|FDF GAG|[1 FDF A2g:|[2 FDF GAG|FDF G2||
